X: 142
T: Zhenqui de lao hai The scales with silver weight
L: 1/8
M: 2/4
K: C
e2d e [I:setbarnb 1]| 
G Ac2 | 
d eA2 | 
G2C2 | 
E G C D | 
E G c A | 
AG3- | 
G3z | 
e2d e | 
G Ac2 | 
d eA2 | 
G2C2 | 
E G C D | 
E G c A | 
AG3- | 
G3z |]

@@@ Tune index: 8810
